X: 482
T: Chicago Glide
S: Viola Ruth "Pioneer Western Folk Tunes" 1948 p.48 #2
R: waltz
N: with a 4-bar shottish intro
Z: 2019 John Chambers <jc:trillian.mit.edu>
M: 4/4
L: 1/8
Q: "Moderate"
K: D
|: A>FA>f e>de>f |1 "^^"a2"^^"a2 "^^"a2z2 :|2\
[M:3/4] "^Waltz"a3 z2(f/g/) ||\
(a2^g2a2) | (b2a2f2) | (g2f2g2) | "^^"A2z2(ef) |\
(g2f2g2) | (c'2b2a2) |
(f2e2f2) | "^^"A4 (FG) |\
A3(FAd) | (f2e2d2) | B3(_B=Bd) | (g2f2e2) |\
"^^"A>B"^^"c>d"^^"e>f | (g2f2g2) | (b2a2f2) |
A3(FAd) |\
(f2e2d2) | B3(_B=Bd) | (g2f2e2) | A>Bc>de>f |\
(g2f2g2) | (b2a2f2) | (g2B2c2) | d4z2 |]

%%sep 1 1 500

